X: 1
T: Gigue des sucres
O: Trad Qu\'ebec
R: jig
Z: 2006 John Chambers <jc:trillian.mit.edu>
F: http://tradquebec.over-blog.com/article-4344084.html
M: 6/8
L: 1/8
K: G
   FE \
| "G"D2G D2G | DGA B3 | "Am"cBc "D7"ABc | "G"e2d B2G \
| "G"D2G D2G | DGA B3 | "Am"cBc "D7"DFA | "G"GBA G :|
|: Bc \
| "G"g3  "D"f3  | "C"efe "G"d3 | "Am"cBc "D7"ABc | "G"e2d B2G \
| "G"gbg "D"faf | "C"ege "G"d3 | "Am"cBc "D7"DFA | "G"GBA G :|
